docs/app/(docs)/[[...slug]]/(home)/components/logos/ati.svg

<svg fill="none" height="209" viewBox="0 0 501 209" width="501" xmlns="http://www.w3.org/2000/svg"><g fill="#000"><path d="m121.841 108.198h-16.524l8.302-25.9048zm22.329 26.646-21.752-62.4315h-17.181l-21.6652 62.4315h13.3627l4.9805-15.443h23.496l5.062 15.443z"/><path d="m12.6648 144.81v62.43h12.4431v-62.43z"/><path d="m42.2928 161.996h-11.8726v45.242h12.457v-23.409c0-9.047 2.6504-13.281 8.3831-13.281 2.6568 0 4.8979 1.247 6.1399 3.235.8326 1.494 1.0808 2.992 1.0808 6.892v26.563h12.4505v-25.651c0-8.053-.4963-10.958-2.3227-13.865-2.7385-4.316-7.3904-6.718-13.1145-6.718-5.564 0-10.2954 2.402-13.2015 6.637z"/><path d="m113.603 176.44c.08-9.878-6.974-15.771-19.0945-15.771-11.7039 0-19.1749 5.645-19.1749 14.363 0 3.315 1.4096 6.637 3.8999 8.879 2.8244 2.577 5.8111 3.738 14.1136 5.484 6.141 1.322 8.3829 2.818 8.3829 5.643 0 2.652-2.7393 4.397-6.8863 4.397-5.2342 0-7.9727-2.491-7.8868-7.304h-12.704c.1675 10.545 7.5568 16.438 20.5049 16.438 12.2882 0 19.9262-5.646 19.9262-14.692 0-6.893-4.068-11.046-13.034-13.369l-8.9679-2.322c-3.4024-.914-4.899-2.161-4.899-4.154 0-2.739 2.3281-4.396 6.229-4.396 5.0602 0 7.1399 1.907 7.3879 6.804z"/><path d="m142.141 161.996h-7.303v-10.958h-12.456v10.958h-6.638v9.384h6.638v20.752c0 5.978.498 8.549 2.241 11.12 2.324 3.49 5.733 4.986 11.29 4.986 2.577 0 3.905-.166 6.228-.751v-9.295c-1.497.166-1.993.247-2.571.247-3.409 0-4.732-1.905-4.732-6.805v-20.254h7.303z"/><path d="m147.068 144.81v11.952h12.456v-11.952zm0 17.181v45.249h12.456v-45.249z"/><path d="m190.246 161.996h-7.302v-10.958h-12.457v10.958h-6.637v9.384h6.637v20.752c0 5.978.499 8.549 2.242 11.12 2.323 3.49 5.732 4.986 11.289 4.986 2.578 0 3.906-.166 6.228-.751v-9.295c-1.496.166-1.993.247-2.571.247-3.408 0-4.731-1.905-4.731-6.805v-20.254h7.302z"/><path d="m224.354 207.24h11.872v-45.241h-12.457v23.408c0 4.9-.408 7.39-1.657 9.383-1.497 2.49-3.986 3.898-6.725 3.898-2.656 0-4.899-1.159-6.141-3.233-.831-1.497-1.08-2.993-1.08-6.893v-26.563h-12.451v25.649c0 8.055.497 10.96 2.323 13.867 2.738 4.316 7.471 6.718 13.114 6.718 5.484 0 10.214-2.402 13.202-6.637z"/><path d="m266.848 161.996h-7.303v-10.958h-12.457v10.958h-6.637v9.384h6.637v20.752c0 5.978.498 8.549 2.242 11.12 2.323 3.49 5.732 4.986 11.289 4.986 2.578 0 3.905-.166 6.229-.751v-9.295c-1.497.166-1.993.247-2.571.247-3.409 0-4.732-1.905-4.732-6.805v-20.254h7.303z"/><path d="m301.602 179.346h-19.341c.992-6.141 4.395-9.296 9.877-9.296 5.478 0 9.215 3.732 9.464 9.296zm12.866 6.061c0-15.195-8.55-24.739-22.249-24.739-13.531 0-22.664 9.544-22.664 23.659 0 14.778 8.967 24.24 23.081 24.24 11.208 0 18.926-5.314 21.752-15.107h-13.202c-1.329 3.571-4.154 5.396-8.302 5.396-6.309 0-10.208-3.819-10.543-10.461h32.047c.08-1.33.08-2.492.08-2.988z"/><path d="m.970612.00161877v10.96038123h20.255688v51.4633h13.1145v-51.4633h20.175v-10.96038123z"/><path d="m57.9623 62.43h12.4495v-22.2486c0-9.7121 2.7438-14.3629 8.4701-14.3629 5.2299 0 7.2228 2.9072 7.2228 10.2954v26.3161h12.4495v-27.644c0-6.9746-.9948-10.5446-3.6517-13.6119-2.6579-3.0737-7.2207-5.0666-11.7049-5.0666-4.8131 0-9.5445 2.4087-12.7858 6.4762v-22.58374578h-12.4495z"/><path d="m134.049 34.5369h-19.343c.993-6.141 4.397-9.2952 9.879-9.2952 5.477 0 9.215 3.7323 9.464 9.2952zm12.865 6.0604c0-15.1944-8.55-24.7389-22.248-24.7389-13.53 0-22.664 9.5445-22.664 23.6581 0 14.7797 8.967 24.2425 23.079 24.2425 11.21 0 18.928-5.3147 21.752-15.1085h-13.2c-1.329 3.5701-4.154 5.3964-8.302 5.3964-6.309 0-10.209-3.8192-10.544-10.4619h32.046c.081-1.33.081-2.4914.081-2.9877z"/><path d="m147.033 134.844h12.451v-62.4312h-12.451z"/><path d="m193.803 114.253c0 8.134-3.65 12.785-10.046 12.785-3.982 0-6.806-2.24-6.806-5.309 0-3.49 3.074-5.234 10.873-6.476l4.321-.666c.162-.084.746-.166 1.658-.334zm11.704.832c.082-3.322.082-5.315.082-6.309 0-8.382-.994-11.9529-4.395-15.2747-3.323-3.4025-8.552-5.2289-15.109-5.2289-12.122 0-19.758 5.8122-20.341 15.5246h12.784c.248-4.4836 2.826-6.7257 7.805-6.7257 5.147 0 7.39 2.7385 7.47 9.1287-5.477.335-12.865 1.416-16.933 2.495-8.636 2.074-12.872 6.558-12.872 13.444 0 8.053 6.725 13.698 16.444 13.698 7.301 0 11.865-2.404 15.188-7.966v1.825c0 1.745.08 2.658.415 5.148h10.711c-.913-3.819-1.249-8.302-1.249-15.524z"/><path d="m223.579 89.5995h-11.873v45.2415h12.457v-23.409c0-9.048 2.651-13.2829 8.382-13.2829 2.657 0 4.899 1.2494 6.141 3.2349.832 1.498 1.081 2.994 1.081 6.894v26.563h12.451v-25.651c0-8.053-.498-10.9603-2.323-13.8653-2.739-4.3167-7.391-6.7179-13.116-6.7179-5.563 0-10.295 2.4012-13.2 6.6373z"/><path d="m291.052 134.843h13.114v-51.4698h20.174v-10.9604h-53.544v10.9604h20.256z"/><path d="m343.108 134.843h11.873v-45.2418h-12.457v23.4088c0 4.9-.408 7.39-1.658 9.383-1.495 2.49-3.986 3.898-6.725 3.898-2.657 0-4.899-1.159-6.14-3.235-.833-1.494-1.081-2.992-1.081-6.892v-26.5628h-12.45v25.6508c0 8.053.497 10.958 2.322 13.866 2.739 4.316 7.471 6.718 13.115 6.718 5.482 0 10.215-2.402 13.201-6.638z"/><path d="m361.28 134.843h12.45v-20.007c0-11.121 3.323-15.4432 11.792-15.4432 1.328 0 2.155.087 3.483.4158v-10.7918c-1.162-.4158-1.905-.4964-3.316-.4964-5.65 0-10.133 2.4893-12.536 6.9725v-5.8917h-11.873z"/><path d="m394.199 84.3673h12.45v-11.9542h-12.45zm12.45 5.2331h-12.45v45.2436h12.45z"/><path d="m425.495 89.5995h-11.873v45.2415h12.457v-23.409c0-9.048 2.651-13.2829 8.383-13.2829 2.656 0 4.898 1.2494 6.14 3.2349.831 1.498 1.081 2.994 1.081 6.894v26.563h12.45v-25.651c0-8.053-.496-10.9603-2.322-13.8653-2.739-4.3167-7.39-6.7179-13.116-6.7179-5.563 0-10.294 2.4012-13.2 6.6373z"/><path d="m488.96 111.268c0 7.222-3.651 12.034-9.048 12.034-5.395 0-8.878-4.894-8.878-12.45 0-7.39 3.65-12.4505 8.966-12.4505 5.476 0 8.96 4.9795 8.96 12.8665zm12.04 14.194v-35.8594h-11.207v5.6446c-3.403-4.7324-7.222-6.7253-12.617-6.7253-11.122 0-18.928 9.2963-18.928 22.4111 0 13.281 7.302 22.087 18.263 22.087 5.812 0 9.463-1.832 12.784-6.31v4.732c0 8.215-2.738 11.785-8.966 11.785-4.483 0-7.551-2.242-7.805-5.725h-12.369c.831 9.129 8.302 14.524 20.006 14.524 10.877 0 17.601-4.397 19.926-13.114.829-3.242.913-4.483.913-13.45z"/></g></svg>

<svg width="501" height="209" viewBox="0 0 501 209" fill="none" xmlns="http://www.w3.org/2000/svg">
<path d="M121.841 108.198H105.317L113.619 82.2932L121.841 108.198ZM144.17 134.844L122.418 72.4125H105.237L83.5718 134.844H96.9345L101.915 119.401H125.411L130.473 134.844H144.17Z" fill="black"/>
<path d="M12.6648 144.81V207.24H25.1079V144.81H12.6648Z" fill="black"/>
<path d="M42.2928 161.996H30.4202V207.238H42.8772V183.829C42.8772 174.782 45.5276 170.548 51.2603 170.548C53.9171 170.548 56.1582 171.795 57.4002 173.783C58.2328 175.277 58.481 176.775 58.481 180.675V207.238H70.9315V181.587C70.9315 173.534 70.4352 170.629 68.6088 167.722C65.8703 163.406 61.2184 161.004 55.4943 161.004C49.9303 161.004 45.1989 163.406 42.2928 167.641V161.996Z" fill="black"/>
<path d="M113.603 176.44C113.683 166.562 106.629 160.669 94.5085 160.669C82.8046 160.669 75.3336 166.314 75.3336 175.032C75.3336 178.347 76.7432 181.669 79.2335 183.911C82.0579 186.488 85.0446 187.649 93.3471 189.395C99.4881 190.717 101.73 192.213 101.73 195.038C101.73 197.69 98.9907 199.435 94.8437 199.435C89.6095 199.435 86.871 196.944 86.9569 192.131H74.2529C74.4204 202.676 81.8097 208.569 94.7578 208.569C107.046 208.569 114.684 202.923 114.684 193.877C114.684 186.984 110.616 182.831 101.65 180.508L92.6821 178.186C89.2797 177.272 87.7831 176.025 87.7831 174.032C87.7831 171.293 90.1112 169.636 94.0121 169.636C99.0723 169.636 101.152 171.543 101.4 176.44H113.603Z" fill="black"/>
<path d="M142.141 161.996H134.838V151.038H122.382V161.996H115.744V171.38H122.382V192.132C122.382 198.11 122.88 200.681 124.623 203.252C126.947 206.742 130.356 208.238 135.913 208.238C138.49 208.238 139.818 208.072 142.141 207.487V198.192C140.644 198.358 140.148 198.439 139.57 198.439C136.161 198.439 134.838 196.534 134.838 191.634V171.38H142.141V161.996Z" fill="black"/>
<path d="M147.068 144.81V156.762H159.524V144.81H147.068ZM147.068 161.991V207.24H159.524V161.991H147.068Z" fill="black"/>
<path d="M190.246 161.996H182.944V151.038H170.487V161.996H163.85V171.38H170.487V192.132C170.487 198.11 170.986 200.681 172.729 203.252C175.052 206.742 178.461 208.238 184.018 208.238C186.596 208.238 187.924 208.072 190.246 207.487V198.192C188.75 198.358 188.253 198.439 187.675 198.439C184.267 198.439 182.944 196.534 182.944 191.634V171.38H190.246V161.996Z" fill="black"/>
<path d="M224.354 207.24H236.226V161.999H223.769V185.407C223.769 190.307 223.361 192.797 222.112 194.79C220.615 197.28 218.126 198.688 215.387 198.688C212.731 198.688 210.488 197.529 209.246 195.455C208.415 193.958 208.166 192.462 208.166 188.562V161.999H195.715V187.648C195.715 195.703 196.212 198.608 198.038 201.515C200.776 205.831 205.509 208.233 211.152 208.233C216.636 208.233 221.366 205.831 224.354 201.596V207.24Z" fill="black"/>
<path d="M266.848 161.996H259.545V151.038H247.088V161.996H240.451V171.38H247.088V192.132C247.088 198.11 247.586 200.681 249.33 203.252C251.653 206.742 255.062 208.238 260.619 208.238C263.197 208.238 264.524 208.072 266.848 207.487V198.192C265.351 198.358 264.855 198.439 264.277 198.439C260.868 198.439 259.545 196.534 259.545 191.634V171.38H266.848V161.996Z" fill="black"/>
<path d="M301.602 179.346H282.261C283.253 173.205 286.656 170.05 292.138 170.05C297.616 170.05 301.353 173.782 301.602 179.346ZM314.468 185.407C314.468 170.212 305.918 160.668 292.219 160.668C278.688 160.668 269.555 170.212 269.555 184.327C269.555 199.105 278.522 208.567 292.636 208.567C303.844 208.567 311.562 203.253 314.388 193.46H301.186C299.857 197.031 297.032 198.856 292.884 198.856C286.575 198.856 282.676 195.037 282.341 188.395H314.388C314.468 187.065 314.468 185.903 314.468 185.407Z" fill="black"/>
<path d="M0.970612 0.00161877V10.962H21.2263V62.4253H34.3408V10.962H54.5158V0.00161877H0.970612Z" fill="black"/>
<path d="M57.9623 62.43H70.4118V40.1814C70.4118 30.4693 73.1556 25.8185 78.8819 25.8185C84.1118 25.8185 86.1047 28.7257 86.1047 36.1139V62.43H98.5542V34.786C98.5542 27.8114 97.5594 24.2414 94.9025 21.1741C92.2446 18.1004 87.6818 16.1075 83.1976 16.1075C78.3845 16.1075 73.6531 18.5162 70.4118 22.5837V-4.57764e-05H57.9623V62.43Z" fill="black"/>
<path d="M134.049 34.5369H114.706C115.699 28.3959 119.103 25.2417 124.585 25.2417C130.062 25.2417 133.8 28.974 134.049 34.5369ZM146.914 40.5973C146.914 25.4029 138.364 15.8584 124.666 15.8584C111.136 15.8584 102.002 25.4029 102.002 39.5165C102.002 54.2962 110.969 63.759 125.081 63.759C136.291 63.759 144.009 58.4443 146.833 48.6505H133.633C132.304 52.2206 129.479 54.0469 125.331 54.0469C119.022 54.0469 115.122 50.2277 114.787 43.585H146.833C146.914 42.255 146.914 41.0936 146.914 40.5973Z" fill="black"/>
<path d="M147.033 134.844H159.484V72.4128H147.033V134.844Z" fill="black"/>
<path d="M193.803 114.253C193.803 122.387 190.153 127.038 183.757 127.038C179.775 127.038 176.951 124.798 176.951 121.729C176.951 118.239 180.025 116.495 187.824 115.253L192.145 114.587C192.307 114.503 192.891 114.421 193.803 114.253ZM205.507 115.085C205.589 111.763 205.589 109.77 205.589 108.776C205.589 100.394 204.595 96.8231 201.194 93.5013C197.871 90.0988 192.642 88.2724 186.085 88.2724C173.963 88.2724 166.327 94.0846 165.744 103.797H178.528C178.776 99.3134 181.354 97.0713 186.333 97.0713C191.48 97.0713 193.723 99.8098 193.803 106.2C188.326 106.535 180.938 107.616 176.87 108.695C168.234 110.769 163.998 115.253 163.998 122.139C163.998 130.192 170.723 135.837 180.442 135.837C187.743 135.837 192.307 133.433 195.63 127.871V129.696C195.63 131.441 195.71 132.354 196.045 134.844H206.756C205.843 131.025 205.507 126.542 205.507 119.32V115.085Z" fill="black"/>
<path d="M223.579 89.5995H211.706V134.841H224.163V111.432C224.163 102.384 226.814 98.1491 232.545 98.1491C235.202 98.1491 237.444 99.3985 238.686 101.384C239.518 102.882 239.767 104.378 239.767 108.278V134.841H252.218V109.19C252.218 101.137 251.72 98.2297 249.895 95.3247C247.156 91.008 242.504 88.6068 236.779 88.6068C231.216 88.6068 226.484 91.008 223.579 95.2441V89.5995Z" fill="black"/>
<path d="M291.052 134.843H304.166V83.3732H324.34V72.4128H270.796V83.3732H291.052V134.843Z" fill="black"/>
<path d="M343.108 134.843H354.981V89.6012H342.524V113.01C342.524 117.91 342.116 120.4 340.866 122.393C339.371 124.883 336.88 126.291 334.141 126.291C331.484 126.291 329.242 125.132 328.001 123.056C327.168 121.562 326.92 120.064 326.92 116.164V89.6012H314.47V115.252C314.47 123.305 314.967 126.21 316.792 129.118C319.531 133.434 324.263 135.836 329.907 135.836C335.389 135.836 340.122 133.434 343.108 129.198V134.843Z" fill="black"/>
<path d="M361.28 134.843H373.73V114.836C373.73 103.715 377.053 99.3928 385.522 99.3928C386.85 99.3928 387.677 99.4798 389.005 99.8086V89.0168C387.843 88.601 387.1 88.5204 385.689 88.5204C380.039 88.5204 375.556 91.0097 373.153 95.4929V89.6012H361.28V134.843Z" fill="black"/>
<path d="M394.199 84.3673H406.649V72.4131H394.199V84.3673ZM406.649 89.6004H394.199V134.844H406.649V89.6004Z" fill="black"/>
<path d="M425.495 89.5995H413.622V134.841H426.079V111.432C426.079 102.384 428.73 98.1491 434.462 98.1491C437.118 98.1491 439.36 99.3985 440.602 101.384C441.433 102.882 441.683 104.378 441.683 108.278V134.841H454.133V109.19C454.133 101.137 453.637 98.2297 451.811 95.3247C449.072 91.008 444.421 88.6068 438.695 88.6068C433.132 88.6068 428.401 91.008 425.495 95.2441V89.5995Z" fill="black"/>
<path d="M488.96 111.268C488.96 118.49 485.309 123.302 479.912 123.302C474.517 123.302 471.034 118.408 471.034 110.852C471.034 103.462 474.684 98.4015 480 98.4015C485.476 98.4015 488.96 103.381 488.96 111.268ZM501 125.462V89.6026H489.793V95.2472C486.39 90.5148 482.571 88.5219 477.176 88.5219C466.054 88.5219 458.248 97.8182 458.248 110.933C458.248 124.214 465.55 133.02 476.511 133.02C482.323 133.02 485.974 131.188 489.295 126.71V131.442C489.295 139.657 486.557 143.227 480.329 143.227C475.846 143.227 472.778 140.985 472.524 137.502H460.155C460.986 146.631 468.457 152.026 480.161 152.026C491.038 152.026 497.762 147.629 500.087 138.912C500.916 135.67 501 134.429 501 125.462Z" fill="black"/>
</svg>
